!!!COM:	Johannes Ockeghem
!!!CDT:	~1425-1497/02/06
!!!OTL:	Fors seulement l'attente
!!!AGN:	Chanson; Rondeau
!!!SCT:	Ock3005
!!!SCA:	Ock3005
!!!voices:	3
**kern	**kern	**kern
*staff3	*staff2	*staff1
*Ivox	*Ivox	*Ivox
*I"Contra	*I"Tenor	*I"Superius
*I'C	*I'T	*I'S
*clefF4	*clefG2	*clefG2
*k[]	*k[]	*k[]
*M2/1	*M2/1	*M2/1
*met(C|)	*met(C|)	*met(C|)
=1-	=1-	=1-
!!LO:TX:Z=16:t=Form&colon; rondeau
0A	0r	0a
=2	=2	=2
1A	0r	1a
1A	.	1a
=3	=3	=3
[0c	0r	1.a
.	.	4g/
.	.	4f/
=4	=4	=4
0c]	0r	1e
.	.	1e
=5	=5	=5
1e	0r	1g
1e	.	1g
=6	=6	=6
1.d	0r	1.f
4c\	.	2d/
4B\	.	.
=7	=7	=7
0A	0r	1f
.	.	[1e
=8	=8	=8
1G	0r	2e/]
.	.	2d/
1F	.	[1d
=9	=9	=9
0E	0r	1d]
.	.	1c#i
=10	=10	=10
1.D	0a	0d
4C/	.	.
4BB/	.	.
=11	=11	=11
0AA	1a	0r
.	1a	.
=12	=12	=12
0r	1.a	1.f
.	4g/	4e/
.	4f/	4d/
=13	=13	=13
0r	1e	1.c
.	1e	.
.	.	2d/
=14	=14	=14
0r	1g	1.e
.	1a	.
.	.	4d/
.	.	4c/
=15	=15	=15
0r	1b	1d
.	1cc	1e
=16	=16	=16
0r	1.dd	2d/
.	.	1f
.	2cc\	2e/
=17	=17	=17
0r	2b\	2d/
.	2a/	2c/
.	1g	1B
=18	=18	=18
[0D	1r	0A
.	1a	.
=19	=19	=19
1D]	1f	1.d
1BB	1d	.
.	.	2B/
=20	=20	=20
0AA	0e	1c
.	.	1A
=21	=21	=21
0r	1d	1B
.	1a	1c
=22	=22	=22
1r	1b	1d
1AA	1cc	1e
=23	=23	=23
1BB	1dd	1d
1C	1ee	[1a
=24	=24	=24
0D	1ff	1a]
.	1ff	1a
=25	=25	=25
0r	1ff	1f
.	1ee	[1g
=26	=26	=26
0G	1.dd	1g]
.	.	1b-
.	4cc\	.
.	4b-i\	.
=27	=27	=27
0A	[0cc	1.a
.	.	4g/
.	.	4f/
=28	=28	=28
2c\	0cc]	2e/
2d\	.	2f/
2e\	.	2e/
2f\	.	[2a/
=29	=29	=29
2e\	0r	2a/]
2d\	.	2f/
2c#i\	.	1e
2B\	.	.
=30	=30	=30
1d	1r	1d
[1A	1cc	1e
=31	=31	=31
2A\]	1dd	1f
4G\	.	.
4F\	.	.
1E	1ee	1g
=32	=32	=32
1.D	1.ff	1a
.	.	[1a
4C/	4ee\	.
4BB/	4dd\	.
=33	=33	=33
0AA	0cc	2a/]
.	.	4g/
.	.	4f/
.	.	1e
=34	=34	=34
1A	1cc	1e
1c	1cc	1e
=35	=35	=35
0B-i	0dd	1.f
.	.	4e/
.	.	4d/
=36	=36	=36
0A	0ee	1c
.	.	1cc
=37	=37	=37
1r	1dd	2b\
.	.	2a/
1A	1cc	[1a
=38	=38	=38
0E	0b	1a]
.	.	1g
=39	=39	=39
1F	[0a;	1a
[1D	.	2f/
.	.	[2d/
=40	=40	=40
2D\]	0a_	2d/]
2AA/	.	2c/
2BB/	.	2d/
2C/	.	2e/
=41	=41	=41
2D\	0a]	2f/
2E\	.	2e/
1AA;	.	1c;
=42	=42	=42
1.A	0r	0a
2B\	.	.
=43	=43	=43
1c	0r	1g
1d	.	1f
=44	=44	=44
1.c	0r	2e/
.	.	2f/
.	.	2g/
[2A\	.	2a/
=45	=45	=45
1A]	0r	2b\
.	.	1cc
1F	.	.
.	.	2a/
=46	=46	=46
1A	0r	4b-i\
.	.	4a/
.	.	4g/
.	.	4f/
1G	.	2e/
.	.	2d/
=47	=47	=47
0F	0cc	0f
=48	=48	=48
1B-	1dd	0r
1B-	1dd	.
=49	=49	=49
1A	1cc	0cc
1F	1a	.
=50	=50	=50
1r	1b-	1dd
1G	1b-	1dd
=51	=51	=51
0A	1a	1cc
.	1f	1a
=52	=52	=52
1G	1g	1b-i
1E	1g	1b-i
=53	=53	=53
[0F	1.f	1a
.	.	[1cc
.	4e/	.
.	4d/	.
=54	=54	=54
1F]	1c	2cc\]
.	.	2b-i\
1E	1r	1g
=55	=55	=55
1r	0cc	0f
[1F	.	.
=56	=56	=56
0F_	1a	0f
.	1a	.
=57	=57	=57
1F]	0f	1d
1D	.	1d
=58	=58	=58
0AA	1.e	0c
.	2f/	.
=59	=59	=59
0r	1g	1c
.	1a	1f
=60	=60	=60
0AA	2g/	2e/
.	2f/	1d
.	1e	.
.	.	2c#i/
=61	=61	=61
[0D	1r	0d
.	[1d	.
=62	=62	=62
0D_	1d]	1B
.	[1f	1A
=63	=63	=63
0D]	2f/]	[0d
.	2g/	.
.	1a	.
=64	=64	=64
1BB	1b	1d]
1AA	[1cc	1c
=65	=65	=65
0C	2cc\]	0e
.	2b\	.
.	[1g	.
=66	=66	=66
0E	2g/]	1c
.	2a/	.
.	2b\	2d/
.	2cc\	2e/
=67	=67	=67
0D	1.dd	2f/
.	.	1d
.	2cc\	[2f/
=68	=68	=68
0A	2a/	2f/]
.	2g/	1e
.	1cc	.
.	.	2c/
=69	=69	=69
0E	2b\	2d/
.	1a	2A/
.	.	1B
.	2g#i/	.
=70	=70	=70
0AAl	0al	0Al
==	==	==
*-	*-	*-
!!!RDF**kern: l=long note in original notation
!!!RDF**kern: i=editorial accidental
!!!RDF**kern: V=start of tuplet marker
!!!RDF**kern: Z=end of tuplet marker
!!!ENC:	Chris Gage
!!!END:	2012/06/25/
!!!EED:	Jesse Rodin
!!!EEV:	2012/06/27/
!!!ONB:	Translated from MusicXML and edited on 2012/06/27/ by Craig Sapp
!!muse2ps: C^@{COM}^i2I150v85,85,100Q16
